svgs/thin/arrows-left-right-to-line.svg

<svg xmlns="http://www.w3.org/2000/svg" viewBox="0 0 640 512"><!--! Font Awesome Pro 6.4.0 by @fontawesome - https://fontawesome.com License - https://fontawesome.com/license (Commercial License) Copyright 2023 Fonticons, Inc. --><path d="M8 64c4.4 0 8 3.6 8 8l0 368c0 4.4-3.6 8-8 8s-8-3.6-8-8V72c0-4.4 3.6-8 8-8zm197.7 90.3c3.1 3.1 3.1 8.2 0 11.3L123.3 248l393.4 0-82.3-82.3c-3.1-3.1-3.1-8.2 0-11.3s8.2-3.1 11.3 0l96 96c3.1 3.1 3.1 8.2 0 11.3l-96 96c-3.1 3.1-8.2 3.1-11.3 0s-3.1-8.2 0-11.3L516.7 264l-393.4 0 82.3 82.3c3.1 3.1 3.1 8.2 0 11.3s-8.2 3.1-11.3 0l-96-96c-3.1-3.1-3.1-8.2 0-11.3l96-96c3.1-3.1 8.2-3.1 11.3 0zM640 72V440c0 4.4-3.6 8-8 8s-8-3.6-8-8V72c0-4.4 3.6-8 8-8s8 3.6 8 8z"/></svg>

<svg xmlns="http://www.w3.org/2000/svg" viewBox="0 0 640 512"><!--! Font Awesome Pro 6.3.0 by @fontawesome - https://fontawesome.com License - https://fontawesome.com/license (Commercial License) Copyright 2023 Fonticons, Inc. --><path d="M8 64C12.42 64 16 67.58 16 72V440C16 444.4 12.42 448 8 448C3.582 448 0 444.4 0 440V72C0 67.58 3.582 64 8 64zM205.7 154.3C208.8 157.5 208.8 162.5 205.7 165.7L123.3 248H516.7L434.3 165.7C431.2 162.5 431.2 157.5 434.3 154.3C437.5 151.2 442.5 151.2 445.7 154.3L541.7 250.3C544.8 253.5 544.8 258.5 541.7 261.7L445.7 357.7C442.5 360.8 437.5 360.8 434.3 357.7C431.2 354.5 431.2 349.5 434.3 346.3L516.7 264H123.3L205.7 346.3C208.8 349.5 208.8 354.5 205.7 357.7C202.5 360.8 197.5 360.8 194.3 357.7L98.34 261.7C95.22 258.5 95.22 253.5 98.34 250.3L194.3 154.3C197.5 151.2 202.5 151.2 205.7 154.3H205.7zM640 440C640 444.4 636.4 448 632 448C627.6 448 624 444.4 624 440V72C624 67.58 627.6 64 632 64C636.4 64 640 67.58 640 72V440z"/></svg>
